packages/components/icon/src/assets/icons/company-size.svg

<svg width="24" height="24" viewBox="0 0 24 24" fill="none" xmlns="http://www.w3.org/2000/svg">
<path fill-rule="evenodd" clip-rule="evenodd" d="M12.0227 5C12.7169 5 13.3569 5.16994 13.9427 5.50981C14.5284 5.84969 14.9912 6.3125 15.3311 6.89824C15.671 7.48399 15.8409 8.12396 15.8409 8.81818C15.8409 9.58471 15.6312 10.2825 15.2118 10.9117C14.7924 11.5408 14.2428 12.0072 13.563 12.311C14.561 12.4411 15.4576 12.687 16.2531 13.0486C17.0486 13.4101 17.6741 13.8512 18.1297 14.3719C18.5852 14.8926 18.813 15.4494 18.813 16.0424V19.0145C18.813 19.3616 18.6901 19.6581 18.4442 19.9039C18.1983 20.1498 17.8946 20.2727 17.5331 20.2727H6.5124C6.15082 20.2727 5.84711 20.1498 5.60124 19.9039C5.35537 19.6581 5.23244 19.3616 5.23244 19.0145V16.0424C5.23244 15.4494 5.46023 14.8926 5.91581 14.3719C6.37139 13.8512 6.9969 13.4101 7.79236 13.0486C8.58781 12.687 9.4845 12.4411 10.4824 12.311C9.80268 12.0072 9.2531 11.5408 8.83368 10.9117C8.41425 10.2825 8.20455 9.58471 8.20455 8.81818C8.20455 8.12396 8.37448 7.48399 8.71436 6.89824C9.05424 6.3125 9.51704 5.84969 10.1028 5.50981C10.6885 5.16994 11.3285 5 12.0227 5ZM8.46488 5.65083C8.07438 6.08471 7.77428 6.57644 7.56457 7.12603C7.35485 7.67562 7.25 8.23967 7.25 8.81818C7.25 9.77273 7.51033 10.6477 8.03099 11.4432C8.08884 11.5589 8.11777 11.6384 8.11777 11.6818C8.11777 11.812 8.03099 11.9132 7.85744 11.9855C7.26446 12.2169 6.70765 12.5134 6.18698 12.875C5.56508 13.2944 5.09143 13.7789 4.76601 14.3285C4.4406 14.8781 4.27789 15.4494 4.27789 16.0424V18.2552H2.97624C2.70144 18.2552 2.47004 18.1612 2.28202 17.9731C2.09401 17.7851 2 17.5537 2 17.2789V13.9163C2 13.2221 2.38326 12.6074 3.14979 12.0723C3.91633 11.5372 4.88532 11.1901 6.05682 11.031C5.53615 10.7996 5.11312 10.4416 4.78771 9.95713C4.46229 9.47262 4.29959 8.93389 4.29959 8.34091C4.29959 7.80578 4.43337 7.31044 4.70093 6.85486C4.96849 6.39927 5.32644 6.03771 5.77479 5.77014C6.22314 5.50258 6.71487 5.3688 7.25 5.3688C7.65496 5.3688 8.05992 5.46281 8.46488 5.65083ZM16.7955 5.3688C17.3306 5.3688 17.8223 5.50258 18.2707 5.77014C18.719 6.03771 19.077 6.39927 19.3445 6.85486C19.6121 7.31044 19.7459 7.80578 19.7459 8.34091C19.7459 8.93389 19.5832 9.47262 19.2577 9.95713C18.9323 10.4416 18.5093 10.7996 17.9886 11.031C19.1601 11.1901 20.1291 11.5372 20.8957 12.0723C21.6622 12.6074 22.0455 13.2221 22.0455 13.9163V17.2789C22.0455 17.5537 21.9514 17.7851 21.7634 17.9731C21.5754 18.1612 21.344 18.2552 21.0692 18.2552H19.7676V16.0424C19.7676 15.4494 19.6049 14.8781 19.2794 14.3285C18.954 13.7789 18.4804 13.2944 17.8585 12.875C17.3378 12.5134 16.781 12.2169 16.188 11.9855C16.0145 11.9132 15.9277 11.812 15.9277 11.6818C15.9277 11.6384 15.9566 11.5589 16.0145 11.4432C16.5351 10.6477 16.7955 9.77273 16.7955 8.81818C16.7955 8.23967 16.6906 7.67562 16.4809 7.12603C16.2712 6.57644 15.9711 6.08471 15.5806 5.65083C15.9855 5.46281 16.3905 5.3688 16.7955 5.3688Z" fill="currentColor"/>
</svg>

<svg viewBox="0 0 24 24" fill="none" xmlns="http://www.w3.org/2000/svg"><path fill-rule="evenodd" clip-rule="evenodd" d="M12.023 5c.694 0 1.334.17 1.92.51.585.34 1.048.803 1.388 1.388.34.586.51 1.226.51 1.92a3.69 3.69 0 0 1-.63 2.094 3.82 3.82 0 0 1-1.648 1.399c.998.13 1.895.376 2.69.738.796.361 1.421.802 1.877 1.323.455.52.683 1.077.683 1.67v2.973c0 .347-.123.643-.369.889s-.55.369-.91.369H6.511c-.361 0-.665-.123-.91-.37a1.212 1.212 0 0 1-.37-.888v-2.973c0-.593.228-1.15.684-1.67.455-.52 1.08-.962 1.876-1.323.796-.362 1.693-.608 2.69-.738a3.821 3.821 0 0 1-1.648-1.4 3.693 3.693 0 0 1-.63-2.093c0-.694.17-1.334.51-1.92a3.761 3.761 0 0 1 1.389-1.388 3.758 3.758 0 0 1 1.92-.51Zm-3.558.65a4.68 4.68 0 0 0-.9 1.476 4.709 4.709 0 0 0-.315 1.692c0 .955.26 1.83.781 2.625a.682.682 0 0 1 .087.239c0 .13-.087.231-.26.303a8.045 8.045 0 0 0-1.671.89c-.622.42-1.096.904-1.421 1.454a3.318 3.318 0 0 0-.488 1.713v2.213H2.976a.943.943 0 0 1-.694-.282A.943.943 0 0 1 2 17.28v-3.363c0-.694.383-1.309 1.15-1.844.766-.535 1.735-.882 2.907-1.041a2.945 2.945 0 0 1-1.27-1.074A2.835 2.835 0 0 1 4.3 8.341c0-.535.133-1.03.4-1.486A3.027 3.027 0 0 1 5.776 5.77a2.83 2.83 0 0 1 1.475-.401c.405 0 .81.094 1.215.282Zm8.33-.281c.536 0 1.027.134 1.476.401.448.268.806.63 1.073 1.085.268.455.402.95.402 1.486 0 .593-.163 1.132-.488 1.616a2.945 2.945 0 0 1-1.27 1.074c1.172.16 2.141.506 2.908 1.041.766.535 1.15 1.15 1.15 1.844v3.363a.944.944 0 0 1-.283.694.943.943 0 0 1-.694.282h-1.301v-2.213c0-.593-.163-1.164-.489-1.714-.325-.55-.799-1.034-1.42-1.453a8.046 8.046 0 0 0-1.671-.89c-.173-.072-.26-.173-.26-.303 0-.044.029-.123.087-.239.52-.795.78-1.67.78-2.625a4.71 4.71 0 0 0-.314-1.692 4.68 4.68 0 0 0-.9-1.475c.405-.188.81-.282 1.215-.282Z" fill="currentColor"/></svg>
